X:1
T: Bouchard's Hornpipe
C: R-88
C: Mike Springer
M: C|
Z:
R: hornpipe
K: D
FE| "D"DFAd "G"BcdB| "A"cdec "D"d2ef| "Em"gfga gfed| "A"decB A2dc|
    "G"B2BA BcdB| "D"AGFG A2(3ABc| "G"dcdf "A"edc2| "D"d4 d2 :|
|:\
fg| "D"a2ab agfa| "Em"gfef g2ag| "Bm"f2fd gfed| "F#m"cdec A2dc|
    "G"B2BA "Em"BcdB| "D"AGFG A2(3ABc| "G"dcdf "A"edc2| "D"d4 d2 :|
%
